X:441
T:Alexander's
M:C|
L:1/8
K:D Major
(3ABc|dAFA DFAd|fdcd FAdf|gfge fefd|(3efe (3dcB A2 (3ABc|!
dAFA DFAd|fdcd FAdf|gfge fefd|(3efe dc d2:|!
AG|FAdA FAdA|GBdB GBdB|Acec Acec|dfaf (3gfe cA|!
FAdA FAdA|GBdB GBdB|Aceg fefd|(3efe dc d2:|!

